X:1
T:Jesus, Savior, Now Is Calling
T:Jesus, Savior, Now Is Calling
T:L. J. Bishop, arranged Robert E. McNeill, 1901
T:Martha Elerick
T:Public Domain Courtesy of the Cyber Hymnal™
T:Public Domain Courtesy of the Cyber Hymnal™
C:L. J. Bishop, arranged Robert E. McNeill, 1901
Z:Public Domain
Z:Courtesy of the Cyber Hymnal™
%%score ( 1 2 ) ( 3 4 )
L:1/8
Q:1/4=85
M:4/4
K:Db
V:1 treble 
V:2 treble 
V:3 bass 
V:4 bass 
V:1
 [DF][EG] | [FA]>[FA] [GB][FA] [FA]<[DF] [DF]>[EG] | [FA][Fd][Ac][GB] !fermata![FA]2 [FA][FA] | %3
w: 1.~Je- sus,|Sav- ior, now is call- ing, Turn, O|turn from sin a- way; He will|
w: 2.~Je- sus,|Sav- ior, now is wait- ing, To for-|give your ev- ery sin; Haste, O|
w: 3.~Je- sus,|Sav- ior, has com- mand- ed, “Be ye|whol- ly sanc- ti- fied”; On the|
w: 4.~Je- sus,|Sav- ior, has as- cend- ed To the|Fa- ther’s realms so fair, For His|
w: 5.~Je- sus,|Sav- ior, how I love Thee, For the|grace Thou dost be- stow; Now Thy|
 [GB]>[GB] G[GB] [FA][DF][DF][DF] | [CE]>[CA] [D=G]>[DB] !fermata![CA] ||"^Refrain" [GA][GA]>[GA] | %6
w: all your bur- dens car- ry, Turn your|dark- ness in- to day.||
w: hast- en to the fount- ain; Now He|bids you en- ter in.||
w: day of His re- turn- ing, He will|wel- come home His bride.|The pre- cious|
w: peo- ple pure and ho- ly, Heav’n- ly|man- sions to pre- pare.||
w: pre- cious blood is cleans- ing Whit- er|than the driv- en snow.||
 [Fd]4- [Fd]>[Fd] [Ac]>[GB] | [FA]4- [FA]>[FA] [FA]>[FA] | [Gc]4- [Gc]>[Gc] [GB]>[GA] | %9
w: |||
w: |||
w: blood, * it cleans- eth|me; * The pre- cious|blood * now cleans- eth|
w: |||
w: |||
 [Fd]6 [FA]>[FA] | [Af]4- [Af]>[Ge] [Fd]>[FA] | [Ac]2 [GB]4 [GB]>[GB] | %12
w: |||
w: |||
w: me; “Pure, ex-|haust- * less, ev- er|flow- ing,” Pre- cious|
w: |||
w: |||
 [FA]4- [FA]>[Fd] [Fc]>[GA] | !fermata!d6 |] %14
w: ||
w: ||
w: blood, * it cleans- eth|me.|
w: ||
w: ||
V:2
 x2 | x8 | x8 | x2 G x5 | x5 || x3 | x8 | x8 | x8 | x8 | x8 | x8 | x8 | (F2 G>A F2) |] %14
V:3
 [D,A,][D,A,] | [D,D]>[D,D] [D,D][D,D] [D,D]<[D,A,] [D,A,]>[D,A,] | %2
w: ~ ~|~ ~ ~ ~ ~ ~ ~ ~|
 [D,D][D,D][G,D][G,D] !fermata![D,D]2 [D,D][D,D] | %3
w: ~ ~ ~ ~ ~ ~ ~|
 [G,D]>[G,D] [G,B,][G,D] [D,D][D,A,][D,A,][D,A,] | [E,A,]>E, E,>E, !fermata![A,,E,] || z3 | %6
w: ~ ~ ~ ~ ~ ~ ~ ~|~ ~ ~ ~ ~||
 z [D,A,] [D,A,]>[D,A,] [D,A,] z3 | z [D,D] [D,D]>[D,D] [D,D] z3 | %8
w: It cleans- eth me,|it cleans- eth me,|
 z [A,,A,] [A,,A,]>[A,,A,] [A,,A,] z3 | z [D,A,] [D,A,]>[D,A,] [D,A,]2 z2 | %10
w: The pre- cious blood|now cleans- eth me,|
 z2 [D,D]>[D,D] [D,D]>[D,A,] [D,A,]>[D,A,] | [G,D]>[G,D] [G,D]>[G,D] [G,D]>[G,D] [G,D]>[G,D] | %12
w: “Pure, ex- haust- less, ev- er|~ ~ ev- er flow- ing,” ~ ~|
 [A,D]2 [A,D]>[A,D] [A,D]>A, [A,,A,]>[A,,A,] | A,2 B,>B, A,2 |] %14
w: ~ pre- cious blood ~ ~ ~|~ cleans- eth me|
V:4
 x2 | x8 | x8 | x8 | x3/2 E,/ E,>E, x || x3 | x8 | x8 | x8 | x8 | x8 | x8 | x11/2 A,/ x2 | %13
 D,3 x3 |] %14

